X:1
T:The Kindly Light Is Leading
T:Charles Hutchinson Gabriel
T:The Kindly Light Is Leading
T:Public Domain
T:Public Domain
T:Public Domain
C:Charles Hutchinson Gabriel
Z:Public Domain
%%score ( 1 2 ) ( 3 4 )
L:1/8
M:4/4
K:D
V:1 treble 
V:2 treble 
V:3 bass 
V:4 bass 
V:1
 [FA]>[EG] | [DF]>[DF] [DF]>[DF] [DF]>[DE] D>[DE] | [DF]2 [FA]4 [GB]>[Gc] | %3
w: 1.~O the|kind- ly light is shin- ing on my|way, Thro’ the gath-|
w: 2.~I was|lost a- mid the heav- y mist of|row, Griev- ing for|
w: 3.~When the|jour- ney of this life is some- time|ver, I know I’ll|
 [Fd]>A [Gc]>[GB] [FA]>[GB] [FA]>[DF] | [CE]6 [CA]>[EG] | [DF]>[DF] [DF]>[DF] [DF]>[DE] D>[DE] | %6
w: ’ring gloom and dark- ness of the night;|I fear no|e- vil, for the way be- fore me|
w: the loved ones who had passed from sight,|the light be-|fore me led my fal- ’tring foot- steps|
w: be glad I fol- lowed all the way,|the light that|guid- ed safe- ly thro’ the dark- ness|
 [DF]2 [FA]4 [EA]>[FB] | [Ec]>[Ec] [FB]>[Fc] [Ed]>[Ed] [Ec]>[DB] | [CA]6 ||"^Refrain" [GB]>[Gc] | %10
w: a flood of glo-|ry now ap- pears to sight. Bless- èd|kind-|ly light,|
w: the path they jour-|neyed to the man- sions bright. * *|||
w: will lead me on-|ward to the per- fect day. * *|||
 [Fd]2 [Fd]2 (F2 F2) | [Gc]>[Gc] [Gc]>[Gc] [Gc]2 [EG]>[EG] | [Gc]2 [Gc]2 E2 E2 | %13
w: glor- ious cheer- *|ray, ’Tis the light of Heav- en|shin- ing glad and|
w: |||
w: |||
 [GB]>[FA] [FA]>[^E^G] [FA]2 [=GB]>[Gc] | [Fd]2 [Fd]2 (F2 F2) | %15
w: Bless- èd kind- ly light, lead- ing|all the way, *|
w: ||
w: ||
 [GB]>[GB] [AB]>[AB] [^Ge]2 [Gd]>[Gd] | [=Gc]>[Gc] [Gc]>[Gc] [Gc]>[GA] [GB]>[Gc] | [Fd]6 |] %18
w: the kind- ly light is lead- ing|ev- en me. * * * * *||
w: |||
w: |||
V:2
 x2 | x6 D3/2 x/ | x8 | x3/2 A/ x6 | x8 | x6 D3/2 x/ | x8 | x8 | x6 || x2 | x4 A4 | x8 | x4 G4 | %13
w: |path-||And||In|||||ing||free;|
w: |sor-||When||To||||||||
w: |o-||For||Then||||||||
 x8 | x4 A4 | x8 | x8 | x6 |] %18
w: |O||||
w: |||||
w: |||||
V:3
 [D,D]>[D,A,] | [D,A,]>[D,A,] [D,A,]>[D,A,] [D,A,]>[D,G,] [D,F,]>[D,G,] | %2
w: ~ ~|~ ~ ~ ~ ~ ~ ~ ~|
 [D,A,]2 [D,D]4 [D,D]>[D,D] | [D,A,]>[D,D] [G,D]>[G,D] [D,D]>[D,D] [D,D]>[D,A,] | %4
w: ~ ~ ~ ~|~ ~ ~ ~ ~ ~ ~ ~|
 [A,,A,]6 [A,,E,]>[A,,A,] | [D,A,]>[D,A,] [D,A,]>[D,A,] [D,A,]>[D,G,] [D,F,]>[D,G,] | %6
w: ~ ~ ~|~ ~ ~ ~ ~ ~ ~ ~|
 [D,A,]2 [D,D]4 [C,A,]>[D,A,] | [E,A,]>[E,A,] [E,^G,]>[E,A,] [E,B,]>[E,B,] [E,A,]>[E,G,] | %8
w: ~ ~ ~ ~|~ ~ ~ ~ ~ ~ ~ ~|
 [A,,A,]6 || z2 | [D,A,]>[D,A,] [D,A,]>[D,A,] [D,D]2 [D,D]2 | %11
w: ~||Bless- èd kind- ly light, the|
 [E,A,]>[E,A,] [E,A,]>[E,A,] [A,E]2 z2 | [A,E]>[A,E] [A,E]>[A,E] [A,C]2 [A,C]2 | %13
w: ~ ~ ~ ~ ~|’Tis the light of Heav’n clear,|
 [D,D]>[D,D] [D,D]>[D,D] [D,D]2 z2 | [D,A,]>[D,A,] [D,A,]>[D,A,] [D,D]2 [D,D]2 | %15
w: ~ ~ ~ ~ ~|Bless- èd kind- ly light is|
 [G,D]>[G,D] [F,^D]>[F,D] [F,=D]2 [E,E]>[E,E] | [A,E]>[A,E] [A,E]>[A,E] [A,E]>[A,C] A,>A, | %17
w: ||
 [D,A,]6 |] %18
w: |
V:4
 x2 | x8 | x8 | x8 | x8 | x8 | x8 | x8 | x6 || x2 | x8 | x8 | x8 | x8 | x8 | x8 | x6 A,>A, | x6 |] %18

